src/images/Timoline/Logo/Blue.svg

<svg fill="none" height="120" viewBox="0 0 330 120" width="330" xmlns="http://www.w3.org/2000/svg" xmlns:xlink="http://www.w3.org/1999/xlink"><clipPath id="a"><path d="m0 0h330v120h-330z"/></clipPath><mask id="b" height="120" maskUnits="userSpaceOnUse" width="330" x="0" y="0"><path d="m330 0h-330v120h330z" fill="#fff"/></mask><g clip-path="url(#a)"><g mask="url(#b)"><g fill="#4962c9"><path d="m193.651 92.755c-.294.0012-.586-.0559-.859-.1681-.272-.1121-.519-.2771-.728-.4853-.208-.2083-.373-.4557-.485-.728s-.169-.5641-.168-.8586v-61.782c-.005-.2951.05-.5882.162-.8611.112-.273.28-.52.491-.7259.206-.2115.453-.3786.726-.4909s.566-.1675.861-.1621h7.75c.295-.0054.588.0498.861.1621s.52.2794.726.4909c.211.2059.379.4529.491.7259.112.2729.167.566.162.8611v61.782c.001.2945-.056.5863-.168.8586s-.277.5197-.485.728c-.209.2082-.456.3732-.728.4853-.273.1122-.565.1693-.859.1681zm21.092 0c-.294.0012-.586-.0559-.859-.1681-.272-.1121-.519-.2771-.728-.4853-.208-.2083-.373-.4557-.485-.728s-.169-.5641-.168-.8586v-44.05c-.005-.2948.05-.5875.163-.8601.112-.2725.279-.5193.49-.7249.206-.2115.453-.3786.726-.4909s.566-.1675.861-.1621h7.746c.303-.0143.606.0366.887.1493.282.1126.536.2844.746.5037.402.4292.62.9989.607 1.587v44.05c.013.5881-.205 1.1578-.607 1.587-.21.2193-.464.3911-.746.5037-.281.1127-.584.1636-.887.1493zm-.373-56.555c-.295.0054-.588-.0498-.861-.1621s-.52-.2794-.726-.4909c-.211-.2059-.379-.4529-.491-.7259-.112-.2729-.167-.566-.162-.8611v-6.72c-.005-.2951.05-.5882.162-.8611.112-.273.28-.52.491-.7259.206-.2115.453-.3786.726-.4909s.566-.1675.861-.1621h8.493c.31-.0114.619.0406.907.1529.289.1123.552.2825.773.5001.211.2059.379.4529.491.7259.112.2729.167.566.162.8611v6.719c.005.2951-.05.5882-.162.8611-.112.273-.28.52-.491.7259-.221.2176-.484.3878-.773.5001-.288.1123-.597.1643-.907.1529zm21.277 56.555c-.294.0012-.586-.0559-.859-.1681-.272-.1121-.519-.2771-.728-.4853-.208-.2083-.373-.4557-.485-.728s-.169-.5641-.168-.8586v-44.05c-.005-.2948.051-.5876.163-.8602s.28-.5192.491-.7248c.206-.2115.453-.3786.726-.4909s.566-.1675.861-.1621h7.653c.295-.0054.588.0498.861.1621s.52.2794.726.4909c.211.2059.379.4529.491.7259.112.2729.167.566.162.8611v3.824c1.87-2.3035 4.254-4.1365 6.961-5.3522 2.706-1.2156 5.66-1.78 8.624-1.6478 3.472-.0847 6.899.8045 9.892 2.567 2.817 1.7313 5.069 4.2443 6.483 7.233 1.609 3.5093 2.391 7.3409 2.286 11.2v26.224c.001.2945-.056.5863-.168.8586s-.277.5197-.485.728c-.209.2082-.456.3732-.728.4853-.273.1122-.565.1693-.859.1681h-8.209c-.294.0012-.586-.0559-.859-.1681-.272-.1121-.519-.2771-.728-.4853-.208-.2083-.373-.4557-.485-.728s-.169-.5641-.168-.8586v-25.665c0-3.6087-.887-6.4397-2.66-8.493s-4.34-3.08-7.7-3.08c-1.436-.066-2.869.1745-4.205.7056-1.335.5311-2.543 1.3405-3.541 2.3744-1.927 2.0533-2.891 4.8843-2.891 8.493v25.665c.001.2945-.056.5863-.168.8586s-.277.5197-.485.728c-.209.2082-.456.3732-.728.4853-.273.1122-.565.1693-.859.1681zm71.3.933c-6.906 0-12.381-1.991-16.425-5.973s-6.221-9.6437-6.532-16.985c-.062-.622-.093-1.4153-.093-2.38-.009-.7631.022-1.5261.093-2.286.12-4.2552 1.222-8.4251 3.22-12.184 1.822-3.3156 4.56-6.0368 7.886-7.839 3.654-1.9058 7.732-2.8531 11.852-2.753 4.439-.1517 8.833.9319 12.693 3.13 3.393 2.0518 6.092 5.0754 7.746 8.679 1.811 4.0311 2.704 8.4145 2.614 12.833v1.96c.005.2951-.05.5882-.162.8611-.112.273-.279.52-.491.7259-.221.2176-.484.3878-.773.5001-.288.1123-.597.1643-.907.1529h-30.985v.75c.039 2.0679.466 4.11 1.26 6.02.723 1.7659 1.918 3.2993 3.453 4.433 1.588 1.1403 3.506 1.7302 5.46 1.68 2.673.1013 5.281-.835 7.279-2.613.582-.5074 1.114-1.07 1.587-1.68.347-.5438.809-1.0055 1.353-1.353.492-.1806 1.016-.2599 1.54-.233h8.026c.567-.0205 1.119.1804 1.54.56.195.1725.344.3908.433.6352.09.2444.117.5072.08.7648-.194 1.3249-.724 2.578-1.54 3.64-1.146 1.6171-2.549 3.0358-4.153 4.2-2.055 1.4963-4.34 2.6468-6.766 3.406-3.003.945-6.14 1.4001-9.288 1.348zm-10.266-29.4h20.625v-.28c.046-2.1922-.368-4.3698-1.213-6.393-.736-1.7475-1.969-3.2403-3.546-4.293-1.694-1.008-3.629-1.5401-5.6-1.5401s-3.906.5321-5.6 1.5401c-1.572 1.0464-2.792 2.5425-3.5 4.293-.815 2.0309-1.212 4.2052-1.167 6.393z"/><path d="m26.598 92.755c-3.253.1035-6.4839-.5683-9.426-1.96-2.4975-1.2518-4.5023-3.3059-5.693-5.833-1.3373-3.0394-1.97533-6.3402-1.86699-9.659v-21.185h-7.372c-.29511.0054-.58818-.0498-.86113-.1621s-.519992-.2794-.725868-.4909c-.218221-.2213-.388753-.485-.501066-.7748-.1123132-.2899-.1640224-.5996-.15193451-.9102v-5.315c-.00508468-.2948.05022761-.5875.16253051-.8601.112303-.2725.279219-.5193.49047-.7249.205705-.2119.452668-.3793.725628-.4919.27296-.1127.56612-.1682.86137-.1631h7.373v-15.492c-.01318-.5881.20475-1.1578.60699-1.587.2097-.2193.4639-.3911.7456-.5037.2818-.1127.5843-.1636.8874-.1493h7.559c.2951-.0054.5882.0498.8611.1621.273.1123.52.2794.7259.4909.2115.2059.3786.4529.4909.7259.1123.2729.1675.566.1621.8611v15.492h11.668c.2951-.0054.5882.0498.8611.1621.273.1123.52.2794.7259.4909.2115.2059.3786.4529.4909.7259.1123.2729.1675.566.1621.8611v5.315c.0114.3098-.0406.6186-.1529.9075s-.2825.5518-.5001.7725c-.2059.2115-.4529.3786-.7259.4909-.2729.1123-.566.1675-.8611.1621h-11.668v20.256c-.1141 2.0782.3545 4.1469 1.353 5.973.902 1.4307 2.473 2.146 4.713 2.146h6.439c.2945-.0013.5864.0557.8588.1678s.5198.2771.7281.4853c.2082.2083.3732.4558.4853.7281.1121.2724.1691.5643.1678.8588v5.786c.0012.2945-.0559.5863-.1681.8586-.1121.2723-.2771.5197-.4853.728-.2083.2082-.4557.3732-.728.4853-.2723.1122-.5641.1693-.8586.1681zm14.745 0c-.2945.0012-.5863-.0559-.8586-.1681-.2723-.1121-.5197-.2771-.728-.4853-.2082-.2083-.3732-.4557-.4853-.728-.1122-.2723-.1693-.5641-.1681-.8586v-44.05c-.0049-.2948.0505-.5876.163-.8602s.2796-.5192.491-.7248c.2059-.2115.4529-.3786.7259-.4909.2729-.1123.566-.1675.8611-.1621h7.746c.3026-.0138.6046.0373.8858.1499.2811.1126.5349.2842.7442.5031.4023.4292.6202.9989.607 1.587v44.05c.0132.5881-.2047 1.1578-.607 1.587-.2096.2193-.4639.3911-.7456.5037-.2817.1127-.5843.1636-.8874.1493zm-.373-56.556c-.2951.0054-.5882-.0498-.8611-.1621-.273-.1123-.52-.2794-.7259-.4909-.2115-.2059-.3785-.4529-.4909-.7259-.1123-.2729-.1674-.566-.1621-.8611v-6.719c-.0053-.2951.0498-.5882.1621-.8611.1124-.273.2794-.52.4909-.7259.2059-.2115.4529-.3786.7259-.4909.2729-.1123.566-.1675.8611-.1621h8.493c.3098-.0114.6186.0406.9075.1529s.5518.2825.7725.5001c.2115.2059.3786.4529.4909.7259.1123.2729.1675.566.1621.8611v6.719c.0054.2951-.0498.5882-.1621.8611-.1123.273-.2794.52-.4909.7259-.2207.2176-.4836.3878-.7725.5001s-.5977.1643-.9075.1529zm21.278 56.556c-.2945.0012-.5863-.0559-.8586-.1681-.2723-.1121-.5197-.2771-.728-.4853-.2082-.2083-.3732-.4557-.4853-.728-.1122-.2723-.1693-.5641-.1681-.8586v-44.05c-.0049-.2948.0505-.5876.163-.8602s.2796-.5192.491-.7248c.2059-.2115.4529-.3786.7259-.4909.2729-.1123.566-.1675.8611-.1621h7.279c.2951-.0054.5882.0498.8611.1621.273.1123.52.2794.7259.4909.2115.2059.3786.4529.4909.7259.1123.2729.1675.566.1621.8611v3.171c1.4196-1.8382 3.2175-3.3499 5.272-4.433 2.434-1.2695 5.1409-1.9261 7.886-1.913 7.0927-.1247 12.039 2.644 14.839 8.306 1.479-2.5363 3.626-4.6185 6.206-6.02 2.751-1.5356 5.856-2.3238 9.006-2.286 3.085-.0382 6.126.7342 8.819 2.24 2.719 1.573 4.899 3.9316 6.253 6.766 1.643 3.5804 2.426 7.4952 2.286 11.432v26.785c.001.2945-.056.5863-.168.8586s-.277.5197-.485.728c-.209.2082-.456.3732-.728.4853-.273.1122-.565.1693-.859.1681h-7.653c-.294.0012-.586-.0559-.859-.1681-.272-.1121-.519-.2771-.728-.4853-.208-.2083-.373-.4557-.485-.728s-.169-.5641-.168-.8586v-26.035c.099-2.287-.315-4.5673-1.213-6.673-.667-1.4989-1.817-2.7311-3.266-3.5-1.422-.6967-2.988-1.0485-4.572-1.027-1.43.0153-2.837.3671-4.106 1.027-1.463.7804-2.64 2.0063-3.36 3.5-.963 2.0877-1.412 4.3761-1.307 6.673v26.035c.001.2945-.056.5863-.168.8586s-.277.5197-.485.728c-.209.2082-.456.3732-.728.4853-.273.1122-.564.1693-.859.1681h-7.652c-.2945.0012-.5863-.0559-.8586-.1681-.2723-.1121-.5197-.2771-.728-.4853-.2082-.2083-.3731-.4557-.4853-.728s-.1693-.5641-.1681-.8586v-26.035c.1045-2.2969-.3437-4.5853-1.307-6.673-.7201-1.4937-1.8969-2.7196-3.36-3.5-1.3608-.6827-2.8636-1.0345-4.386-1.027-1.4667.0088-2.9088.3773-4.2 1.073-1.4496.7981-2.6217 2.019-3.36 3.5-.9665 2.0703-1.4144 4.3448-1.305 6.627v26.035c.0012.2945-.0559.5863-.1681.8586-.1121.2723-.2771.5197-.4853.728-.2083.2082-.4557.3732-.728.4853-.2723.1122-.5641.1693-.8586.1681z"/><path d="m161.656 94.12c-4.964-.0112-9.817-1.4657-13.969-4.1864-4.151-2.7206-7.422-6.5899-9.414-11.1366s-2.618-9.5745-1.803-14.4708c.816-4.8964 3.037-9.4499 6.394-13.1061 3.358-3.6561 7.706-6.2569 12.515-7.4856s9.872-1.0323 14.572.5654c4.699 1.5977 8.833 4.5277 11.897 8.433 3.064 3.9052 4.926 8.6173 5.359 13.5621h-11.446c-.583-3.5468-2.483-6.7432-5.319-8.9513-2.837-2.2081-6.401-3.2654-9.983-2.961-3.581.3044-6.917 1.9481-9.34 4.6031-2.423 2.6551-3.756 6.1261-3.732 9.7206.023 3.5944 1.401 7.0479 3.859 9.6711 2.457 2.6233 5.813 4.2234 9.399 4.4811 3.585.2577 7.135-.846 9.943-3.0908 2.807-2.2448 4.665-5.4657 5.202-9.0198h11.417c-.565 6.3851-3.502 12.3267-8.232 16.6531s-10.909 6.7236-17.319 6.7189z"/></g><path d="m172.284 66.13c-1.7-5.889-5.786-8.916-10.672-8.916-2.554.0525-5.018.9592-6.996 2.5752-1.979 1.6161-3.36 3.8484-3.922 6.3408z" fill="#dbc772"/></g></g></svg>

<svg width="330" height="120" viewBox="0 0 330 120" fill="none" xmlns="http://www.w3.org/2000/svg">
<g clip-path="url(#clip0_502_2965)">
<mask id="mask0_502_2965" style="mask-type:luminance" maskUnits="userSpaceOnUse" x="0" y="0" width="330" height="120">
<path d="M330 0H0V120H330V0Z" fill="white"/>
</mask>
<g mask="url(#mask0_502_2965)">
<path d="M193.651 92.755C193.357 92.7562 193.065 92.6991 192.792 92.5869C192.52 92.4748 192.273 92.3098 192.064 92.1016C191.856 91.8933 191.691 91.6459 191.579 91.3736C191.467 91.1013 191.41 90.8095 191.411 90.515V28.733C191.406 28.4379 191.461 28.1448 191.573 27.8719C191.685 27.5989 191.853 27.3519 192.064 27.146C192.27 26.9345 192.517 26.7674 192.79 26.6551C193.063 26.5428 193.356 26.4876 193.651 26.493H201.401C201.696 26.4876 201.989 26.5428 202.262 26.6551C202.535 26.7674 202.782 26.9345 202.988 27.146C203.199 27.3519 203.367 27.5989 203.479 27.8719C203.591 28.1448 203.646 28.4379 203.641 28.733V90.515C203.642 90.8095 203.585 91.1013 203.473 91.3736C203.361 91.6459 203.196 91.8933 202.988 92.1016C202.779 92.3098 202.532 92.4748 202.26 92.5869C201.987 92.6991 201.695 92.7562 201.401 92.755H193.651ZM214.743 92.755C214.449 92.7562 214.157 92.6991 213.884 92.5869C213.612 92.4748 213.365 92.3098 213.156 92.1016C212.948 91.8933 212.783 91.6459 212.671 91.3736C212.559 91.1013 212.502 90.8095 212.503 90.515V46.465C212.498 46.1702 212.553 45.8775 212.666 45.6049C212.778 45.3324 212.945 45.0856 213.156 44.88C213.362 44.6685 213.609 44.5014 213.882 44.3891C214.155 44.2768 214.448 44.2216 214.743 44.227H222.489C222.792 44.2127 223.095 44.2636 223.376 44.3763C223.658 44.4889 223.912 44.6607 224.122 44.88C224.524 45.3092 224.742 45.8789 224.729 46.467V90.517C224.742 91.1051 224.524 91.6748 224.122 92.104C223.912 92.3233 223.658 92.4951 223.376 92.6077C223.095 92.7204 222.792 92.7713 222.489 92.757L214.743 92.755ZM214.37 36.2C214.075 36.2054 213.782 36.1502 213.509 36.0379C213.236 35.9256 212.989 35.7585 212.783 35.547C212.572 35.3411 212.404 35.0941 212.292 34.8211C212.18 34.5482 212.125 34.2551 212.13 33.96V27.24C212.125 26.9449 212.18 26.6518 212.292 26.3789C212.404 26.1059 212.572 25.8589 212.783 25.653C212.989 25.4415 213.236 25.2744 213.509 25.1621C213.782 25.0498 214.075 24.9946 214.37 25H222.863C223.173 24.9886 223.482 25.0406 223.77 25.1529C224.059 25.2652 224.322 25.4354 224.543 25.653C224.754 25.8589 224.922 26.1059 225.034 26.3789C225.146 26.6518 225.201 26.9449 225.196 27.24V33.959C225.201 34.2541 225.146 34.5472 225.034 34.8201C224.922 35.0931 224.754 35.3401 224.543 35.546C224.322 35.7636 224.059 35.9338 223.77 36.0461C223.482 36.1584 223.173 36.2104 222.863 36.199L214.37 36.2ZM235.647 92.755C235.353 92.7562 235.061 92.6991 234.788 92.5869C234.516 92.4748 234.269 92.3098 234.06 92.1016C233.852 91.8933 233.687 91.6459 233.575 91.3736C233.463 91.1013 233.406 90.8095 233.407 90.515V46.465C233.402 46.1702 233.458 45.8774 233.57 45.6048C233.682 45.3322 233.85 45.0856 234.061 44.88C234.267 44.6685 234.514 44.5014 234.787 44.3891C235.06 44.2768 235.353 44.2216 235.648 44.227H243.301C243.596 44.2216 243.889 44.2768 244.162 44.3891C244.435 44.5014 244.682 44.6685 244.888 44.88C245.099 45.0859 245.267 45.3329 245.379 45.6059C245.491 45.8788 245.546 46.1719 245.541 46.467V50.291C247.411 47.9875 249.795 46.1545 252.502 44.9388C255.208 43.7232 258.162 43.1588 261.126 43.291C264.598 43.2063 268.025 44.0955 271.018 45.858C273.835 47.5893 276.087 50.1023 277.501 53.091C279.11 56.6003 279.892 60.4319 279.787 64.291V90.515C279.788 90.8095 279.731 91.1013 279.619 91.3736C279.507 91.6459 279.342 91.8933 279.134 92.1016C278.925 92.3098 278.678 92.4748 278.406 92.5869C278.133 92.6991 277.841 92.7562 277.547 92.755H269.338C269.044 92.7562 268.752 92.6991 268.479 92.5869C268.207 92.4748 267.96 92.3098 267.751 92.1016C267.543 91.8933 267.378 91.6459 267.266 91.3736C267.154 91.1013 267.097 90.8095 267.098 90.515V64.85C267.098 61.2413 266.211 58.4103 264.438 56.357C262.665 54.3037 260.098 53.277 256.738 53.277C255.302 53.211 253.869 53.4515 252.533 53.9826C251.198 54.5137 249.99 55.3231 248.992 56.357C247.065 58.4103 246.101 61.2413 246.101 64.85V90.515C246.102 90.8095 246.045 91.1013 245.933 91.3736C245.821 91.6459 245.656 91.8933 245.448 92.1016C245.239 92.3098 244.992 92.4748 244.72 92.5869C244.447 92.6991 244.155 92.7562 243.861 92.755H235.647ZM306.947 93.688C300.041 93.688 294.566 91.697 290.522 87.715C286.478 83.733 284.301 78.0713 283.99 70.73C283.928 70.108 283.897 69.3147 283.897 68.35C283.888 67.5869 283.919 66.8239 283.99 66.064C284.11 61.8088 285.212 57.6389 287.21 53.88C289.032 50.5644 291.77 47.8432 295.096 46.041C298.75 44.1352 302.828 43.1879 306.948 43.288C311.387 43.1363 315.781 44.2199 319.641 46.418C323.034 48.4698 325.733 51.4934 327.387 55.097C329.198 59.1281 330.091 63.5115 330.001 67.93V69.89C330.006 70.1851 329.951 70.4782 329.839 70.7511C329.727 71.0241 329.56 71.2711 329.348 71.477C329.127 71.6946 328.864 71.8648 328.575 71.9771C328.287 72.0894 327.978 72.1414 327.668 72.13H296.683V72.88C296.722 74.9479 297.149 76.99 297.943 78.9C298.666 80.6659 299.861 82.1993 301.396 83.333C302.984 84.4733 304.902 85.0632 306.856 85.013C309.529 85.1143 312.137 84.178 314.135 82.4C314.717 81.8926 315.249 81.33 315.722 80.72C316.069 80.1762 316.531 79.7145 317.075 79.367C317.567 79.1864 318.091 79.1071 318.615 79.134H326.641C327.208 79.1135 327.76 79.3144 328.181 79.694C328.376 79.8665 328.525 80.0848 328.614 80.3292C328.704 80.5736 328.731 80.8364 328.694 81.094C328.5 82.4189 327.97 83.672 327.154 84.734C326.008 86.3511 324.605 87.7698 323.001 88.934C320.946 90.4303 318.661 91.5808 316.235 92.34C313.232 93.285 310.095 93.7401 306.947 93.688ZM296.681 64.288H317.306V64.008C317.352 61.8158 316.938 59.6382 316.093 57.615C315.357 55.8675 314.124 54.3747 312.547 53.322C310.853 52.314 308.918 51.7819 306.947 51.7819C304.976 51.7819 303.041 52.314 301.347 53.322C299.775 54.3684 298.555 55.8645 297.847 57.615C297.032 59.6459 296.635 61.8202 296.68 64.008L296.681 64.288Z" fill="#4962C9"/>
<path d="M26.598 92.755C23.345 92.8585 20.1141 92.1867 17.172 90.795C14.6745 89.5432 12.6697 87.4891 11.479 84.962C10.1417 81.9226 9.50367 78.6218 9.61201 75.303V54.118H2.24001C1.9449 54.1234 1.65183 54.0682 1.37888 53.9559C1.10593 53.8436 0.858888 53.6765 0.653012 53.465C0.434791 53.2437 0.264259 52.98 0.151946 52.6902C0.0396328 52.4003 -0.0120764 52.0906 1.14937e-05 51.78V46.465C-0.00507319 46.1702 0.0502391 45.8775 0.162542 45.6049C0.274845 45.3324 0.441761 45.0856 0.653012 44.88C0.858717 44.6681 1.10568 44.5007 1.37864 44.3881C1.6516 44.2754 1.94476 44.2199 2.24001 44.225H9.61301V28.733C9.59983 28.1449 9.81776 27.5752 10.22 27.146C10.4297 26.9267 10.6839 26.7549 10.9656 26.6423C11.2474 26.5296 11.5499 26.4787 11.853 26.493H19.412C19.7071 26.4876 20.0002 26.5428 20.2731 26.6551C20.5461 26.7674 20.7931 26.9345 20.999 27.146C21.2105 27.3519 21.3776 27.5989 21.4899 27.8719C21.6022 28.1448 21.6574 28.4379 21.652 28.733V44.225H33.32C33.6151 44.2196 33.9082 44.2748 34.1811 44.3871C34.4541 44.4994 34.7011 44.6665 34.907 44.878C35.1185 45.0839 35.2856 45.3309 35.3979 45.6039C35.5102 45.8768 35.5654 46.1699 35.56 46.465V51.78C35.5714 52.0898 35.5194 52.3986 35.4071 52.6875C35.2948 52.9764 35.1246 53.2393 34.907 53.46C34.7011 53.6715 34.4541 53.8386 34.1811 53.9509C33.9082 54.0632 33.6151 54.1184 33.32 54.113H21.652V74.369C21.5379 76.4472 22.0065 78.5159 23.005 80.342C23.907 81.7727 25.478 82.488 27.718 82.488H34.157C34.4515 82.4867 34.7434 82.5437 35.0158 82.6558C35.2882 82.7679 35.5356 82.9329 35.7439 83.1411C35.9521 83.3494 36.1171 83.5969 36.2292 83.8692C36.3413 84.1416 36.3983 84.4335 36.397 84.728V90.514C36.3982 90.8085 36.3411 91.1003 36.2289 91.3726C36.1168 91.6449 35.9518 91.8923 35.7436 92.1006C35.5353 92.3088 35.2879 92.4738 35.0156 92.5859C34.7433 92.6981 34.4515 92.7552 34.157 92.754L26.598 92.755ZM41.343 92.755C41.0485 92.7562 40.7567 92.6991 40.4844 92.5869C40.2121 92.4748 39.9647 92.3098 39.7564 92.1016C39.5482 91.8933 39.3832 91.6459 39.2711 91.3736C39.1589 91.1013 39.1018 90.8095 39.103 90.515V46.465C39.0981 46.1702 39.1535 45.8774 39.266 45.6048C39.3785 45.3322 39.5456 45.0856 39.757 44.88C39.9629 44.6685 40.2099 44.5014 40.4829 44.3891C40.7558 44.2768 41.0489 44.2216 41.344 44.227H49.09C49.3926 44.2132 49.6946 44.2643 49.9758 44.3769C50.2569 44.4895 50.5107 44.6611 50.72 44.88C51.1223 45.3092 51.3402 45.8789 51.327 46.467V90.517C51.3402 91.1051 51.1223 91.6748 50.72 92.104C50.5104 92.3233 50.2561 92.4951 49.9744 92.6077C49.6927 92.7204 49.3901 92.7713 49.087 92.757L41.343 92.755ZM40.97 36.199C40.6749 36.2044 40.3818 36.1492 40.1089 36.0369C39.8359 35.9246 39.5889 35.7575 39.383 35.546C39.1715 35.3401 39.0045 35.0931 38.8921 34.8201C38.7798 34.5472 38.7247 34.2541 38.73 33.959V27.24C38.7247 26.9449 38.7798 26.6518 38.8921 26.3789C39.0045 26.1059 39.1715 25.8589 39.383 25.653C39.5889 25.4415 39.8359 25.2744 40.1089 25.1621C40.3818 25.0498 40.6749 24.9946 40.97 25H49.463C49.7728 24.9886 50.0816 25.0406 50.3705 25.1529C50.6594 25.2652 50.9223 25.4354 51.143 25.653C51.3545 25.8589 51.5216 26.1059 51.6339 26.3789C51.7462 26.6518 51.8014 26.9449 51.796 27.24V33.959C51.8014 34.2541 51.7462 34.5472 51.6339 34.8201C51.5216 35.0931 51.3545 35.3401 51.143 35.546C50.9223 35.7636 50.6594 35.9338 50.3705 36.0461C50.0816 36.1584 49.7728 36.2104 49.463 36.199H40.97ZM62.248 92.755C61.9535 92.7562 61.6617 92.6991 61.3894 92.5869C61.1171 92.4748 60.8697 92.3098 60.6614 92.1016C60.4532 91.8933 60.2882 91.6459 60.1761 91.3736C60.0639 91.1013 60.0068 90.8095 60.008 90.515V46.465C60.0031 46.1702 60.0585 45.8774 60.171 45.6048C60.2835 45.3322 60.4506 45.0856 60.662 44.88C60.8679 44.6685 61.1149 44.5014 61.3879 44.3891C61.6608 44.2768 61.9539 44.2216 62.249 44.227H69.528C69.8231 44.2216 70.1162 44.2768 70.3891 44.3891C70.6621 44.5014 70.9091 44.6685 71.115 44.88C71.3265 45.0859 71.4936 45.3329 71.6059 45.6059C71.7182 45.8788 71.7734 46.1719 71.768 46.467V49.638C73.1876 47.7998 74.9855 46.2881 77.04 45.205C79.474 43.9355 82.1809 43.2789 84.926 43.292C92.0187 43.1673 96.965 45.936 99.765 51.598C101.244 49.0617 103.391 46.9795 105.971 45.578C108.722 44.0424 111.827 43.2542 114.977 43.292C118.062 43.2538 121.103 44.0262 123.796 45.532C126.515 47.105 128.695 49.4636 130.049 52.298C131.692 55.8784 132.475 59.7932 132.335 63.73V90.515C132.336 90.8095 132.279 91.1013 132.167 91.3736C132.055 91.6459 131.89 91.8933 131.682 92.1016C131.473 92.3098 131.226 92.4748 130.954 92.5869C130.681 92.6991 130.389 92.7562 130.095 92.755H122.442C122.148 92.7562 121.856 92.6991 121.583 92.5869C121.311 92.4748 121.064 92.3098 120.855 92.1016C120.647 91.8933 120.482 91.6459 120.37 91.3736C120.258 91.1013 120.201 90.8095 120.202 90.515V64.48C120.301 62.193 119.887 59.9127 118.989 57.807C118.322 56.3081 117.172 55.0759 115.723 54.307C114.301 53.6103 112.735 53.2585 111.151 53.28C109.721 53.2953 108.314 53.6471 107.045 54.307C105.582 55.0874 104.405 56.3133 103.685 57.807C102.722 59.8947 102.273 62.1831 102.378 64.48V90.515C102.379 90.8095 102.322 91.1013 102.21 91.3736C102.098 91.6459 101.933 91.8933 101.725 92.1016C101.516 92.3098 101.269 92.4748 100.997 92.5869C100.724 92.6991 100.433 92.7562 100.138 92.755H92.486C92.1915 92.7562 91.8997 92.6991 91.6274 92.5869C91.3551 92.4748 91.1077 92.3098 90.8994 92.1016C90.6912 91.8933 90.5263 91.6459 90.4141 91.3736C90.3019 91.1013 90.2448 90.8095 90.246 90.515V64.48C90.3505 62.1831 89.9023 59.8947 88.939 57.807C88.2189 56.3133 87.0421 55.0874 85.579 54.307C84.2182 53.6243 82.7154 53.2725 81.193 53.28C79.7263 53.2888 78.2842 53.6573 76.993 54.353C75.5434 55.1511 74.3713 56.372 73.633 57.853C72.6665 59.9233 72.2186 62.1978 72.328 64.48V90.515C72.3292 90.8095 72.2721 91.1013 72.1599 91.3736C72.0478 91.6459 71.8828 91.8933 71.6746 92.1016C71.4663 92.3098 71.2189 92.4748 70.9466 92.5869C70.6743 92.6991 70.3825 92.7562 70.088 92.755H62.248Z" fill="#4962C9"/>
<path d="M161.656 94.12C156.692 94.1088 151.839 92.6543 147.687 89.9336C143.536 87.213 140.265 83.3437 138.273 78.797C136.281 74.2503 135.655 69.2225 136.47 64.3262C137.286 59.4298 139.507 54.8763 142.864 51.2201C146.222 47.564 150.57 44.9632 155.379 43.7345C160.188 42.5058 165.251 42.7022 169.951 44.2999C174.65 45.8976 178.784 48.8276 181.848 52.7329C184.912 56.6381 186.774 61.3502 187.207 66.295H175.761C175.178 62.7482 173.278 59.5518 170.442 57.3437C167.605 55.1356 164.041 54.0783 160.459 54.3827C156.878 54.6871 153.542 56.3308 151.119 58.9858C148.696 61.6409 147.363 65.1119 147.387 68.7064C147.41 72.3008 148.788 75.7543 151.246 78.3775C153.703 81.0008 157.059 82.6009 160.645 82.8586C164.23 83.1163 167.78 82.0126 170.588 79.7678C173.395 77.523 175.253 74.3021 175.79 70.748H187.207C186.642 77.1331 183.705 83.0747 178.975 87.4011C174.245 91.7275 168.066 94.1247 161.656 94.12Z" fill="#4962C9"/>
<path d="M172.284 66.13C170.584 60.241 166.498 57.214 161.612 57.214C159.058 57.2665 156.594 58.1732 154.616 59.7892C152.637 61.4053 151.256 63.6376 150.694 66.13H172.284Z" fill="#DBC772"/>
</g>
</g>
<defs>
<clipPath id="clip0_502_2965">
<rect width="330" height="120" fill="white"/>
</clipPath>
</defs>
</svg>
